X:1
T:Dulcis est somnus
T:Antoine Brumel
T:Source : Bicinia---Tomus I---Wittemberg---G.Rhau---1545. Editor : André Vierendeels (13/06/17).
T:Notes : Original clefs : C3, F3 Original note values have been halved Editorial accidentals above the staff Dotted bracket indicates black notes 
T:Dulcis est somnus
T:©
T:©
C:Antoine Brumel
Z:©
%%score [ 1 2 ]
L:1/8
Q:1/4=120
M:2/2
K:F
V:1 treble-8 nm="Tenor" snm="T"
V:2 bass nm="Bass" snm="B"
V:1
 A4 A2 B2- | BAGF G4 | FGAB c2 dc | de f4 e2 | f4 e2 d2- | d2 c2 B4 | A3 B cd e2- | ed d4 c2 | %8
w: Dul- cis est|_ _ _ _ som-|nus _ _ _ o- * *|* * * pe-|ran- * *|||* ti si- ve|
 f3 e c2 g2- | gfde f4 | e2 a2 gf f2 | f2 e2 f4- | f4 f4 | e4 z2 AB | cdef g4- | g4 g4 | f8 | %17
w: pa- * * *|* * * * rum,|si- ve- * * *|mul- tum co-|* me|dat, sa- *|* * * * tu-|* ri-|tas|
 e6 d2 | g4 f2 e2 | d2 g3 f e2 | d2 g2 f2 ed- | dc c4 B2 | c8 |] %23
w: au- tem|di- vi- tis,|non si- * *|nit e- um dor- *|* * mi- *|re.|
V:2
 z8 | z8 | A,4 A,2 B,2- | B,A,G,F, G,4 | F,3 G, A,2 B,2- | B,A, A,4 G,2 | F,2 A,4 G,2- | %7
w: ||Dul- cis _|_ _ _ _ est|som- nus o- pe-|* * ran- *|* * ti|
 G,F,E,D, E,4 | D,2 F,3 E, C,2 | G,2 B,3 A,F,G, | A,B, C4 A,2 | G,4 F,4 | z2 D,E, F,G,A,B, | C8 | %14
w: _ _ _ _ si-|ve pa- rum si-|ve mul- * * *|* * tum co-|me- dar,|sa- * * * * *|tu-|
 A,4 G,4 | z2 E,F, G,A,B,C | D2 D,E, F,G,A,B, |"^-natural" C2 C,D, E,F, G,2- | G,2 E,2 D,2 G,2- | %19
w: ri- tas|au- * * * * *|tem di- * vi- * * *|tis, non _ _ _ _|_ si- nit e-|
 G,F, E,2 D,2 G,2- | G,F, E,2 D,2 G,2- | G,2 E,2 D,4 | C,8 |] %23
w: * * * um dor-||* * mi-|re.|

